X: 14
T:Sean Ryan's Jig
M:6/8
L:1/8
Q:160
R:Jig
D:P.J.Hayes All Ireland album
Z:Jack Tuttle
K:EMinor
(B| c2) A {c}BAG| AGE DB,G,| ~A,3 EDB,| DEG AGE|~c2 A (BdB)| AGE DB,G,|
~A,3 EG(E|D)B,G, A2, :||: (B|{d}c)BA aga| bag edB|
GBd {a}gfg| GBd cBA|(cBc) (d^cd)| ede gab| age dBG| E=FG A2 :||
